img/mickey.svg

<svg height="855" viewBox="0 0 935 855" width="935" xmlns="http://www.w3.org/2000/svg"><path d="m741.954144-.00273163c106.314815 0 192.5 86.85675853 192.5 193.99999963 0 107.143242-86.185185 194-192.5 194-3.57798 0-7.133161-.098376-10.663025-.292592l.006142-.00941c27.862533 46.373565 43.897852 100.752552 43.897852 158.901308 0 169.82756-136.777009 307.5-305.5 307.5s-305.5-137.67244-305.5-307.5c0-57.916982 15.907745-112.094188 43.565247-158.346409-4.94046.390062-9.938244.585499-14.981322.585499-106.3148142 0-192.49999986-86.856758-192.49999986-194 0-107.143241 86.18518566-193.99999952 192.49999986-193.99999952 106.314814 0 192.5 86.85675852 192.5 193.99999952 0 20.544468-3.168785 40.343058-9.040663 58.926451l-.006101-.008717c29.457681-9.517536 60.863991-14.656824 93.462839-14.656824 30.806618 0 60.54822 4.589723 88.586692 13.126877-5.737195-18.375643-8.827661-37.937192-8.827661-58.226183 0-107.1432411 86.185186-193.99999963 192.5-193.99999963z" fill="#1f2937" fill-rule="evenodd"/></svg>

<?xml version="1.0" encoding="UTF-8"?>
<svg width="935px" height="855px" viewBox="0 0 935 855" version="1.1" xmlns="http://www.w3.org/2000/svg" xmlns:xlink="http://www.w3.org/1999/xlink">
    <title>Mask Copy 14</title>
    <g id="Page-1" stroke="none" stroke-width="1" fill="none" fill-rule="evenodd">
        <path d="M741.954144,-0.00273163358 C848.268959,-0.00273163358 934.454144,86.8540269 934.454144,193.997268 C934.454144,301.14051 848.268959,387.997268 741.954144,387.997268 C738.376164,387.997268 734.820983,387.898892 731.291119,387.704676 L731.297261,387.695266 C759.159794,434.068831 775.195113,488.447818 775.195113,546.596574 C775.195113,716.424134 638.418104,854.096574 469.695113,854.096574 C300.972122,854.096574 164.195113,716.424134 164.195113,546.596574 C164.195113,488.679592 180.102858,434.502386 207.76036,388.250165 C202.8199,388.640227 197.822116,388.835664 192.779038,388.835664 C86.4642238,388.835664 0.279038138,301.978906 0.279038138,194.835664 C0.279038138,87.692423 86.4642238,0.835664482 192.779038,0.835664482 C299.093852,0.835664482 385.279038,87.692423 385.279038,194.835664 C385.279038,215.380132 382.110253,235.178722 376.238375,253.762115 L376.232274,253.753398 C405.689955,244.235862 437.096265,239.096574 469.695113,239.096574 C500.501731,239.096574 530.243333,243.686297 558.281805,252.223451 C552.54461,233.847808 549.454144,214.286259 549.454144,193.997268 C549.454144,86.8540269 635.63933,-0.00273163358 741.954144,-0.00273163358 Z" id="Mask-Copy-14" fill="#1F2937"></path>
    </g>
</svg>
